public/images/dev45.svg

<svg width="100" height="100" viewBox="0 0 100 100" fill="none" xmlns="http://www.w3.org/2000/svg">
<path d="M21.7959 73.6253L27.2599 72.6855C29.9317 75.6449 28.8871 76.8246 31.1772 78.5043C34.9739 81.3037 39.7549 80.064 41.362 77.7645C43.2704 75.065 43.1499 72.4855 42.5472 70.046L48.7344 68.9862L49.4978 75.3849L84.7529 68.9462L82.6637 43.2514L81.4584 43.4713L77.7019 2.25955L14.0418 8.97821L21.7959 73.6253Z" fill="white"/>
<path d="M49.9197 24.915C50.462 24.3951 47.2077 23.6953 44.6766 25.4549C42.8084 26.7347 42.7481 29.5141 44.536 31.0738C44.6828 31.2026 44.8371 31.3228 44.998 31.4337C45.5855 31.1577 46.1893 30.9173 46.806 30.7139C47.7531 30.3962 48.7284 30.1686 49.7188 30.034C50.1004 29.6141 50.5424 28.8542 50.4219 27.4945C50.2612 25.6349 48.8751 25.9148 49.9197 24.915ZM67.055 34.973C66.7537 34.793 65.3074 34.873 64.2828 34.993C62.3544 35.233 60.2652 35.9128 59.8031 36.2727C58.9795 36.9326 59.3411 38.0524 59.9638 38.5323C61.6914 39.832 63.1981 40.7119 64.8051 40.4919C65.7895 40.3519 66.6533 38.7922 67.2559 37.3725C67.6778 36.3727 67.6778 35.3129 67.055 34.973ZM60.446 23.3953C60.3254 23.6553 60.1647 23.8152 60.4259 24.6551L60.446 24.6951L60.4861 24.795L60.5866 25.055C61.0687 26.0348 61.5709 26.9546 62.4548 27.4345C62.6758 27.3945 62.9168 27.3745 63.1579 27.3545C63.9815 27.3145 64.4837 27.4545 64.8252 27.6345C64.8555 27.3824 64.8623 27.128 64.8453 26.8746C64.7851 25.6349 65.0864 23.5153 62.736 22.4155C61.8522 21.9956 60.5866 22.1356 60.1848 22.6555C60.2536 22.6573 60.3215 22.6708 60.3857 22.6955C60.9884 22.8954 60.5665 23.1154 60.446 23.3953ZM84.7328 40.3919L82.7039 40.7918L78.8067 0L12.2941 7.79844L20.4902 75.025L28.2644 73.8852C27.6416 72.9854 26.6774 71.9056 25.0301 70.5059C22.7401 68.5863 23.5436 65.3069 24.9096 63.2473C26.6975 59.748 35.918 55.3289 35.3957 49.75C35.215 47.7305 34.8935 45.091 33.0253 43.2713C32.992 43.7653 33.0122 44.2614 33.0856 44.751C32.5704 44.0433 32.1829 43.2516 31.9405 42.4115C31.5589 41.8916 31.2575 41.7317 30.8558 41.0318C30.6808 41.5879 30.5994 42.1689 30.6147 42.7514C30.6147 42.7514 29.992 41.2518 29.8915 39.992C29.5299 40.5519 29.4295 41.6317 29.4295 41.6317C29.4295 41.6317 28.626 39.2721 28.8068 38.0124C28.4452 36.9126 27.3403 34.7131 27.6416 29.7341C29.6706 31.1738 34.1302 30.8338 35.8779 28.2344C36.4604 27.3745 36.8421 25.035 35.5966 20.4159C34.7931 17.4565 32.7843 13.0374 32.0008 11.3577L31.9004 11.4177C32.3021 12.7574 33.1659 15.5969 33.4873 16.9566C34.4717 21.1158 34.7328 22.5555 34.2708 24.4751C33.869 26.1348 32.9249 27.2346 30.5344 28.4543C28.1438 29.6741 24.9498 26.6947 24.7489 26.5347C22.4186 24.6551 20.6107 21.5957 20.4098 20.096C20.2089 18.4763 21.3339 17.4965 21.9164 16.1568C21.3269 16.3395 20.7499 16.5599 20.1888 16.8166C20.9437 16.0435 21.7563 15.3282 22.6195 14.6771C23.1331 14.3444 23.6231 13.9769 24.086 13.5773C23.2423 13.5573 22.5392 13.5773 22.5392 13.5773C23.4761 13.0744 24.442 12.627 25.4319 12.2376C24.3471 12.1976 23.3226 12.2376 23.3226 12.2376C23.3226 12.2376 26.4966 10.7978 28.9876 9.75805C30.7152 9.03819 32.3825 9.25815 33.3266 10.6379C34.5721 12.4375 35.8578 13.4373 38.63 14.0372C40.3174 13.2773 40.8397 12.8974 42.9691 12.2975C44.8373 10.218 46.3037 9.93801 46.3037 9.93801C45.8353 10.4182 45.5146 11.0219 45.3797 11.6777C46.4444 10.8378 47.6095 10.118 47.6095 10.118C47.2716 10.5735 46.9821 11.0627 46.7457 11.5777L46.8461 11.7177C47.7099 11.2072 48.6095 10.7595 49.538 10.3779C49.538 10.3779 49.1161 10.9178 48.634 11.5977C49.5581 11.5977 51.4665 11.6377 52.1896 11.7177C56.5287 11.8176 57.4327 7.03859 59.1 6.43871C61.1892 5.67886 62.1133 5.23895 65.6689 8.75825C68.7224 11.7976 71.0928 17.2166 69.9277 18.4163C68.9434 19.4161 66.9747 18.0164 64.8051 15.2969C63.5651 13.7463 62.7363 11.9105 62.3945 9.95801C62.1725 8.83595 61.5868 7.81739 60.7272 7.05859C60.7272 7.05859 61.4906 8.79824 61.4906 10.3379C61.4906 11.1778 61.591 14.3171 62.9168 16.0768C62.7762 16.3367 62.716 17.3565 62.5753 17.5365C61.0285 15.6369 57.6939 14.2971 57.1515 13.8972C58.9795 15.4169 63.1981 18.9162 64.8252 22.2556C66.352 25.4149 65.448 28.3143 66.2314 29.0742C66.4524 29.2941 69.5259 33.1534 70.1085 35.113C71.133 38.5123 70.1687 42.0716 68.8228 44.2711L65.0462 44.871C64.5508 44.7578 64.0717 44.5831 63.6199 44.3511C63.9012 43.8712 64.4436 42.6515 64.4436 42.3915L64.2226 42.0116C63.0575 43.6913 61.0888 45.3309 59.4415 46.2707C57.3122 47.4905 54.8413 47.3105 53.2342 46.8106C48.6742 45.3909 44.3753 42.2715 43.3507 41.4717C43.3507 41.4717 43.3106 42.1316 43.5115 42.2715C44.6565 43.5713 47.2881 45.9508 49.8393 47.5905L44.4154 48.1904L46.9867 68.3663C45.8618 68.5263 45.681 68.6063 44.4355 68.7862C43.3307 64.867 41.2415 62.3075 38.9514 60.8278C36.9225 59.5081 34.1503 59.2282 31.4785 59.748L31.3178 59.948C33.5279 59.7047 35.7536 60.2426 37.6055 61.4677C39.8152 62.8874 41.583 66.5267 42.2459 68.7263C43.0896 71.5257 43.6722 74.5251 41.4022 77.7045C39.7951 79.964 35.1145 81.2038 31.3178 78.5043C32.3222 80.144 33.6882 81.5037 35.5364 81.7437C38.2684 82.1236 40.8598 81.6437 42.6477 79.784C44.1744 78.2044 44.9779 74.885 44.7569 71.4057L47.1675 71.0458L48.0313 77.3045L87.9671 72.4455L84.7328 40.3919ZM46.5046 49.6501L51.5267 48.9502C52.2828 49.2807 53.0702 49.5353 53.8771 49.7101C55.4038 50.11 57.1515 50.4899 59.763 49.1702C60.3656 48.8702 61.6312 47.7105 62.1334 47.0306L82.724 43.2514L84.8132 68.9462L49.5581 75.3649L46.5046 49.6501ZM75.7131 58.1884L68.9634 53.6893L63.3387 63.1874L56.7899 61.2477L51.0245 70.146L51.3258 72.9454L82.6436 67.1066L80.8357 47.3105L75.7131 58.1884Z" fill="#75459B"/>
<path d="M97.2278 93.8013V97.3206C96.6711 97.4749 96.0979 97.5622 95.5203 97.5805C92.1254 97.5805 90.4379 95.7809 90.4379 92.1616C90.4379 88.8223 92.2258 87.1626 95.8216 87.1626C97.258 87.1491 98.6814 87.4352 100 88.0024V85.4829C98.5927 84.9653 97.1006 84.7144 95.6006 84.7431C90.237 84.7431 87.5519 87.2159 87.5452 92.1616C87.5452 97.3805 90.1835 99.9934 95.46 100C97.268 100 98.7947 99.7401 100 99.2002V91.3218H95.5203L94.5761 93.8013H97.2278ZM78.2644 97.5605C81.2776 97.5605 82.7843 95.8209 82.7843 92.3216C82.7843 88.8823 81.2776 87.1426 78.2644 87.1426C75.1708 87.1426 73.6239 88.8623 73.6239 92.3216C73.644 95.8209 75.1708 97.5605 78.2644 97.5605ZM70.7513 92.3815C70.7513 87.2826 73.2557 84.7297 78.2644 84.7231C83.186 84.7231 85.6502 87.2759 85.6569 92.3815C85.6569 97.4605 83.1927 100 78.2644 100C73.4833 99.98 70.9723 97.4605 70.7513 92.3815ZM58.1559 97.4605H61.4504C64.544 97.4605 66.1109 95.6209 66.1109 91.9416C66.1109 88.8023 64.5641 87.2426 61.4504 87.2426H58.1559V97.4605ZM61.8722 99.88H55.3837V84.8431H61.8722C66.5528 84.8431 68.8898 87.2159 68.8831 91.9616C68.8831 97.2406 66.5461 99.88 61.8722 99.88ZM40.5785 99.88H37.726L44.0739 84.8431H47.047L53.5356 99.88H50.5625L48.6742 95.7809H43.8931L44.8373 93.3614H47.951L45.5002 87.7025L40.5785 99.88ZM27.8023 84.8431H39.1523V87.2626H34.8734V99.88H32.1012V87.2626H27.8023V84.8431ZM16.3921 99.88H13.5396L19.8875 84.8431H22.8606L29.3491 99.88H26.3961L24.5078 95.7809H19.7067L20.6509 93.3614H23.7646L21.3339 87.7025L16.3921 99.88ZM2.7722 97.4605H6.06669C9.18039 97.4605 10.7272 95.6209 10.7272 91.9416C10.7272 88.8023 9.18039 87.2426 6.06669 87.2426H2.7722V97.4605ZM6.48855 99.88H0V84.8431H6.48855C11.1758 84.8431 13.5128 87.2159 13.4994 91.9616C13.4994 97.2406 11.1491 99.88 6.48855 99.88Z" fill="#75459B"/>
</svg>

<svg xmlns="http://www.w3.org/2000/svg" width="100" height="100" fill="none"><path fill="#fff" d="m21.796 73.625 5.464-.94c2.672 2.96 1.627 4.14 3.917 5.82 3.797 2.799 8.578 1.559 10.185-.74 1.908-2.7 1.788-5.28 1.185-7.719l6.187-1.06.764 6.399 35.255-6.439-2.09-25.695-1.205.22L77.702 2.26l-63.66 6.718z"/><path fill="#75459B" d="M49.92 24.915c.542-.52-2.712-1.22-5.243.54-1.869 1.28-1.929 4.06-.141 5.619q.22.194.462.36a16 16 0 0 1 1.808-.72 16 16 0 0 1 2.913-.68c.381-.42.823-1.18.703-2.54-.16-1.86-1.547-1.58-.502-2.579m17.135 10.058c-.301-.18-1.748-.1-2.772.02-1.929.24-4.018.92-4.48 1.28-.823.66-.462 1.78.16 2.26 1.728 1.299 3.235 2.179 4.842 1.959.984-.14 1.848-1.7 2.45-3.12.423-1 .423-2.06-.2-2.399m-6.609-11.578c-.12.26-.281.42-.02 1.26l.02.04.04.1.1.26c.483.98.985 1.9 1.869 2.38.22-.04.462-.06.703-.08.823-.04 1.326.1 1.667.28a4 4 0 0 0 .02-.76c-.06-1.24.241-3.36-2.109-4.46-.884-.42-2.15-.28-2.551.24a.6.6 0 0 1 .2.04c.603.2.181.42.061.7m24.287 16.997-2.03.4L78.808 0 12.294 7.798l8.196 67.227 7.774-1.14c-.622-.9-1.587-1.98-3.234-3.38-2.29-1.919-1.486-5.198-.12-7.258 1.788-3.499 11.008-7.918 10.486-13.497-.181-2.02-.502-4.659-2.37-6.479-.034.494-.014.99.06 1.48a7.5 7.5 0 0 1-1.145-2.34c-.382-.52-.683-.68-1.085-1.38a5.3 5.3 0 0 0-.241 1.72s-.623-1.5-.723-2.759c-.362.56-.462 1.64-.462 1.64s-.804-2.36-.623-3.62c-.362-1.1-1.467-3.299-1.165-8.278 2.029 1.44 6.488 1.1 8.236-1.5.582-.86.964-3.199-.281-7.818-.804-2.96-2.813-7.379-3.596-9.058l-.1.06c.401 1.34 1.265 4.179 1.586 5.539.985 4.159 1.246 5.598.784 7.518-.402 1.66-1.346 2.76-3.737 3.98s-5.584-1.76-5.785-1.92c-2.33-1.88-4.138-4.94-4.34-6.439-.2-1.62.925-2.6 1.507-3.94q-.885.276-1.727.66a21.5 21.5 0 0 1 2.43-2.139 13 13 0 0 0 1.467-1.1c-.844-.02-1.547 0-1.547 0q1.407-.755 2.893-1.34c-1.085-.04-2.11 0-2.11 0s3.175-1.44 5.666-2.479c1.727-.72 3.395-.5 4.339.88 1.245 1.8 2.53 2.8 5.303 3.4 1.687-.76 2.21-1.14 4.34-1.74 1.867-2.08 3.334-2.36 3.334-2.36a3.5 3.5 0 0 0-.924 1.74c1.064-.84 2.23-1.56 2.23-1.56a8 8 0 0 0-.864 1.46l.1.14c.864-.51 1.764-.959 2.692-1.34 0 0-.422.54-.904 1.22.924 0 2.833.04 3.556.12 4.339.1 5.243-4.68 6.91-5.28 2.09-.76 3.013-1.199 6.569 2.32 3.053 3.04 5.424 8.459 4.259 9.658-.985 1-2.953-.4-5.123-3.12a11.8 11.8 0 0 1-2.41-5.338 5.22 5.22 0 0 0-1.668-2.9s.764 1.74.764 3.28c0 .84.1 3.98 1.426 5.739-.14.26-.201 1.28-.342 1.46-1.547-1.9-4.881-3.24-5.424-3.64 1.828 1.52 6.047 5.02 7.674 8.359 1.527 3.159.623 6.058 1.406 6.818.221.22 3.295 4.08 3.878 6.039 1.024 3.4.06 6.959-1.286 9.158l-3.777.6a6 6 0 0 1-1.426-.52c.281-.48.824-1.7.824-1.96l-.221-.38c-1.166 1.68-3.134 3.32-4.782 4.26-2.129 1.22-4.6 1.04-6.207.54-4.56-1.42-8.859-4.54-9.883-5.34 0 0-.04.66.16.8 1.145 1.3 3.777 3.68 6.328 5.32l-5.424.6 2.572 20.175c-1.125.16-1.306.24-2.552.42-1.104-3.919-3.193-6.479-5.484-7.958-2.029-1.32-4.8-1.6-7.472-1.08l-.161.2a9.5 9.5 0 0 1 6.287 1.52c2.21 1.42 3.978 5.059 4.64 7.258.845 2.8 1.427 5.8-.843 8.978-1.607 2.26-6.288 3.5-10.084.8 1.004 1.64 2.37 3 4.218 3.24 2.732.38 5.324-.1 7.112-1.96 1.526-1.58 2.33-4.899 2.109-8.378l2.41-.36.864 6.258 39.936-4.859zM46.505 49.65l5.022-.7c.756.33 1.543.585 2.35.76 1.527.4 3.274.78 5.886-.54.603-.3 1.868-1.46 2.37-2.14l20.591-3.779 2.09 25.695-35.256 6.419zm29.208 8.538-6.75-4.499-5.624 9.498-6.55-1.94-5.764 8.899.3 2.8 31.319-5.84-1.808-19.795zM97.228 93.801v3.52a7.3 7.3 0 0 1-1.708.26c-3.395 0-5.082-1.8-5.082-5.42 0-3.339 1.788-4.998 5.384-4.998a10.3 10.3 0 0 1 4.178.84v-2.52a12.1 12.1 0 0 0-4.4-.74q-8.044 0-8.055 7.419 0 7.827 7.915 7.838c1.808 0 3.335-.26 4.54-.8v-7.878h-4.48l-.944 2.48zm-18.964 3.76c3.014 0 4.52-1.74 4.52-5.24 0-3.439-1.506-5.178-4.52-5.178-3.093 0-4.64 1.72-4.64 5.179.02 3.499 1.547 5.239 4.64 5.239m-7.513-5.18q0-7.647 7.513-7.658 7.383 0 7.393 7.659 0 7.617-7.393 7.618c-4.78-.02-7.292-2.54-7.513-7.618m-12.595 5.08h3.294c3.094 0 4.66-1.84 4.66-5.52 0-3.139-1.546-4.698-4.66-4.698h-3.294zm3.716 2.419h-6.488V84.843h6.488q7.02 0 7.011 7.119 0 7.918-7.01 7.918m-21.293 0h-2.853l6.348-15.037h2.973l6.489 15.037h-2.974l-1.888-4.1h-4.78l.943-2.419h3.114l-2.45-5.659zM27.801 84.843h11.35v2.42h-4.279V99.88h-2.772V87.263h-4.299zM16.392 99.88H13.54l6.348-15.037h2.973l6.488 15.037h-2.953l-1.888-4.1h-4.801l.944-2.419h3.114l-2.431-5.659zm-13.62-2.42h3.295c3.113 0 4.66-1.84 4.66-5.518 0-3.14-1.547-4.7-4.66-4.7H2.772zm3.717 2.42H0V84.843h6.489q7.03 0 7.01 7.119c0 5.279-2.35 7.918-7.01 7.918"/></svg>
